X:1
T:Wem Gott ein braves Lieb beschert
T:Heinrich Szadrowsky
T:Wem Gott ein braves Lieb beschert
T:August Corrodi
T:CPDL - Creative Commons Attribution Non Commercial 3.0
T:CPDL - Creative Commons Attribution Non Commercial 3.0
C:Heinrich Szadrowsky
Z:August Corrodi
Z:CPDL - Creative Commons Attribution Non Commercial 3.0
%%score [ ( 1 2 ) ( 3 4 ) ]
L:1/8
Q:1/4=80
M:4/4
K:F
V:1 treble-8 nm="Tenor"
V:2 treble-8 
V:3 bass nm="Bass"
V:4 bass 
V:1
"^Mäßiges Tempo. Kräftig und seelenvoll."!mf! FG | A2 B2!<(! c2!<)! F2 | %2
w: 1\-3.~Wem *|Gott ein bra- ves|
w: ||
w: ||
 d3!>(! d !breath!c2!>)!!mf! d2 | B2 c2 Ac BA |!>(! G4!>)! !breath!A2!mf! FG | %5
w: Lieb be- schert, der|soll von ihm * nit *|schei- den. 1.~Er *|
w: ||* * 2.~Die *|
w: ||* * 3.~Ein *|
 A2!<(! B2 c2!<)! F2 | d3!>(! d !breath!c2!>)! A2 | G2!<(! A2 =B2 c2!<)! | f3 f !breath!e2!f! ce | %9
w: soll es hal- ten|treu und fest, denn|wenn er‘s wie- der|schei- den lässt, dann *|
w: Welt, ist sie wohl|schön und groß, ist|sie doch kalt und|lie- be- los! Und *|
w: Stünd- lein lang, ein|Stünd- lein weit, und|zwi- schen liegt die|E- wig- keit! Und *|
 g2 g2 e2 c2 | d3 d !breath!e2 ce | g2"^dim." g2 fe dc | %12
w: ge- het auch sein|Her- ze mit, und *|Frie- den find‘t * er _|
w: wem sein Liebs- tes|schei- den geht, wie‘n *|Vög- lein oh- * ne _|
w: der euch sang dies|Lied- lein gut, der *|klagt es Gott, * wie _|
[Q:1/4=76]"^rit." d2 d2 !breath!!fermata!e2!mf! FG | A2 B2!<(! c2!<)! f2 | %14
w: nim- mer nit. 1\-3.~Wem *|Gott ein bra- ves|
w: Bett- lein steht. * *||
w: weh das tut! * *||
 e3!>(! d!>)! !breath!=c2 ed |!<(! c2!<)! f2 a2 gd | (f2!>(! e2)!>)! f2 !fermata!x2 |] %17
w: Lieb be- schert, der _|soll von ihm nit *|schei- * den.|
w: |||
w: |||
V:2
 F2 | F2 F2 G2 F2 | B3 B A2 c2 | B2 B2 A2 F2 | E4 F2 F2 | F2 F2 G2 F2 | B3 B A2 A2 | G2 G2 G2 G2 | %8
 =B3 B c2 c2 | c2 c2 c2 c2 | (c2 =B) A G2 c2 | c2 ^c2 d2 =c2 | c2 =BA G2 F2 | F2 F2 AG c2 | %14
 ^c3 d G2 B2 | A2 c2 d2 d2 | (c2 B2) A2 x2 |] %17
V:3
!mf! F,2 | F,2 F,2!<(! E,2!<)! _E,2 | (D,2 F,)!>(! G, !breath!A,2!>)!!mf! ^F,2 | %3
 G,=F, E,2 F,2 C,2 |!>(! C,4!>)! !breath!C,2!mf! F,2 | F,2!<(! F,2 E,2!<)! _E,2 | %6
 (D,2 F,)!>(! G, !breath!A,2!>)! F,2 | F,2!<(! E,2 F,2 F,2!<)! | D,2 G,2 !breath!G,2!f! E,2 | %9
 G,2 G,2 G,2 ^F,2 | =F,3 F, !breath!E,2 E,2 | E,2"^dim." E,2 F,2 ^F,2 | %12
 G,2 =F,2 !breath!!fermata!E,2!mf! F,2 | %13
"_Aus: Neue Volksgesänge für den Männcherchor, herausgegeben von Ignaz Heim, Zürich 1865, Selbstverlag, Seite 126 \nCPDL - Creative Commons Attribution Non Commercial 3.0""_Die Stelle: „Ein Stündlein lang“ bis zum Refrain am Schluß ist  l a n g s a m e r  vorzutragen" F,E, D,2!<(! E,2!<)! F,2 | %14
 G,3!>(! F,!>)! !breath!E,2 E,2 |!<(! F,2!<)! F,2 F,2 G,B, | (A,2!>(! G,2)!>)! F,2 !fermata!x2 |] %17
V:4
 F,2 | F,E, D,2 C,2 A,,2 | (B,,2 D,) E, F,2 D,2 | G,,2 C,2 F,,2 A,,2 | C,4 F,,2 F,2 | %5
 F,E, D,2 C,2 A,,2 | (B,,2 D,) E, F,2 F,2 | F,2 E,2 D,2 C,2 | G,,3 G,, C,2 C,2 | %9
 E,2 E,2 A,,2 A,,2 | G,,3 G,, C,2 C,2 | B,,2 A,,2 A,,2 A,,2 | G,,2 G,,2 C,2 A,,_B,, | %13
 C,2 D,2 C,2 A,,2 | A,,3 B,, B,,2 G,,2 | A,,2 A,,2 B,,2 B,,2 | C,4 F,,2 x2 |] %17

